X: 813
T: Alan's Farewell To The Sixties
R: jig
M: 6/8
K: Dmajor
|:A|"D" A2f dcB|"A" A2e c2A|"Em" G2e B2G|"F#m" FAG "Bm" F2F|
"G" G2A BAG|"F#m" ABc "Bm" d2d|"Em" efg "A7" ABc|"D" d3 d2:|
|:e|"D" f2A def|"A" e2A cBA|"Em" B2G e2d|"F#m" cBA "Bm" F2d|
"G" BGB gdB|"F#m" AFA "Bm" fdB|1 "Em" efg "A7" ABc|"D" d3 d2:|2 "Em" efg "A7" afe|"D"d3 d2||

